X: 2
T: Greig's Pipes
R: reel
M: 4/4
L: 1/8
K: Gmaj
d2Bd egge|d2BG AGEG|d2Bd egge|agbg ageg|d2Bd egge|d2BG AGEG|d2Bd egge|dBAB G3A|B2B/B/B BAGA|B2BG AGEG|B2B/B/B BAGA|BGAF G2GA|B2B/B/B BAGA|B2BG AGEG|B2B/B/B BAGA|BGAF G2D/D/D|DGBG AGBG|DGBG AGEG|DGBG AGBd|gedB ABGE|DGBG AGBG|DGBG AGEG|DGBG AGBd|gedB G4|


Tune 605	Setting 20783

